svgs/thin/barcode.svg

<svg xmlns="http://www.w3.org/2000/svg" viewBox="0 0 512 512"><!--! Font Awesome Pro 6.4.0 by @fontawesome - https://fontawesome.com License - https://fontawesome.com/license (Commercial License) Copyright 2023 Fonticons, Inc. --><path d="M0 40c0-4.4 3.6-8 8-8s8 3.6 8 8V472c0 4.4-3.6 8-8 8s-8-3.6-8-8V40zm256 0c0-4.4 3.6-8 8-8s8 3.6 8 8V472c0 4.4-3.6 8-8 8s-8-3.6-8-8V40zm136-8c4.4 0 8 3.6 8 8V472c0 4.4-3.6 8-8 8s-8-3.6-8-8V40c0-4.4 3.6-8 8-8zm-88 8c0-4.4 3.6-8 8-8s8 3.6 8 8V472c0 4.4-3.6 8-8 8s-8-3.6-8-8V40zM56 32c4.4 0 8 3.6 8 8V472c0 4.4-3.6 8-8 8s-8-3.6-8-8V40c0-4.4 3.6-8 8-8zm392 8c0-4.4 3.6-8 8-8s8 3.6 8 8V472c0 4.4-3.6 8-8 8s-8-3.6-8-8V40zm56-8c4.4 0 8 3.6 8 8V472c0 4.4-3.6 8-8 8s-8-3.6-8-8V40c0-4.4 3.6-8 8-8zM112 40c0-4.4 3.6-8 8-8s8 3.6 8 8V472c0 4.4-3.6 8-8 8s-8-3.6-8-8V40zm80-8c4.4 0 8 3.6 8 8V472c0 4.4-3.6 8-8 8s-8-3.6-8-8V40c0-4.4 3.6-8 8-8z"/></svg>

<svg xmlns="http://www.w3.org/2000/svg" viewBox="0 0 512 512"><!--! Font Awesome Pro 6.3.0 by @fontawesome - https://fontawesome.com License - https://fontawesome.com/license (Commercial License) Copyright 2023 Fonticons, Inc. --><path d="M0 40C0 35.58 3.582 32 8 32C12.42 32 16 35.58 16 40V472C16 476.4 12.42 480 8 480C3.582 480 0 476.4 0 472V40zM256 40C256 35.58 259.6 32 264 32C268.4 32 272 35.58 272 40V472C272 476.4 268.4 480 264 480C259.6 480 256 476.4 256 472V40zM400 40V472C400 476.4 396.4 480 392 480C387.6 480 384 476.4 384 472V40C384 35.58 387.6 32 392 32C396.4 32 400 35.58 400 40zM304 40C304 35.58 307.6 32 312 32C316.4 32 320 35.58 320 40V472C320 476.4 316.4 480 312 480C307.6 480 304 476.4 304 472V40zM64 40V472C64 476.4 60.42 480 56 480C51.58 480 48 476.4 48 472V40C48 35.58 51.58 32 56 32C60.42 32 64 35.58 64 40zM448 40C448 35.58 451.6 32 456 32C460.4 32 464 35.58 464 40V472C464 476.4 460.4 480 456 480C451.6 480 448 476.4 448 472V40zM512 40V472C512 476.4 508.4 480 504 480C499.6 480 496 476.4 496 472V40C496 35.58 499.6 32 504 32C508.4 32 512 35.58 512 40zM112 40C112 35.58 115.6 32 120 32C124.4 32 128 35.58 128 40V472C128 476.4 124.4 480 120 480C115.6 480 112 476.4 112 472V40zM200 40V472C200 476.4 196.4 480 192 480C187.6 480 184 476.4 184 472V40C184 35.58 187.6 32 192 32C196.4 32 200 35.58 200 40z"/></svg>
